public/style/workarea/images/icons/exe-share-icon-green.svg

<svg fill="none" height="16" viewBox="0 0 16 16" width="16" xmlns="http://www.w3.org/2000/svg"><g stroke="#0ba1a1" stroke-linecap="round" stroke-linejoin="round" stroke-width="1.5"><path d="m12 14.6667c1.1046 0 2-.8955 2-2 0-1.1046-.8954-2-2-2s-2 .8954-2 2c0 1.1045.8954 2 2 2z"/><path d="m4 10c1.10457 0 2-.89543 2-2s-.89543-2-2-2-2 .89543-2 2 .89543 2 2 2z"/><path d="m5.72656 9.00665 4.55334 2.65335"/><path d="m12 5.33334c1.1046 0 2-.89543 2-2s-.8954-2-2-2-2 .89543-2 2 .8954 2 2 2z"/><path d="m10.2732 4.34-4.54664 2.65333"/></g></svg>

<svg width="16" height="16" viewBox="0 0 16 16" fill="none" xmlns="http://www.w3.org/2000/svg">
<path d="M12 14.6667C13.1046 14.6667 14 13.7712 14 12.6667C14 11.5621 13.1046 10.6667 12 10.6667C10.8954 10.6667 10 11.5621 10 12.6667C10 13.7712 10.8954 14.6667 12 14.6667Z" stroke="#0BA1A1" stroke-width="1.5" stroke-linecap="round" stroke-linejoin="round"/>
<path d="M4 10C5.10457 10 6 9.10457 6 8C6 6.89543 5.10457 6 4 6C2.89543 6 2 6.89543 2 8C2 9.10457 2.89543 10 4 10Z" stroke="#0BA1A1" stroke-width="1.5" stroke-linecap="round" stroke-linejoin="round"/>
<path d="M5.72656 9.00665L10.2799 11.66" stroke="#0BA1A1" stroke-width="1.5" stroke-linecap="round" stroke-linejoin="round"/>
<path d="M12 5.33334C13.1046 5.33334 14 4.43791 14 3.33334C14 2.22877 13.1046 1.33334 12 1.33334C10.8954 1.33334 10 2.22877 10 3.33334C10 4.43791 10.8954 5.33334 12 5.33334Z" stroke="#0BA1A1" stroke-width="1.5" stroke-linecap="round" stroke-linejoin="round"/>
<path d="M10.2732 4.34L5.72656 6.99333" stroke="#0BA1A1" stroke-width="1.5" stroke-linecap="round" stroke-linejoin="round"/>
</svg>
